icons/fill-ele-symbol-check-circle.svg

<svg xmlns="http://www.w3.org/2000/svg" width="32px" height="32px" viewBox="0 0 32 32" version="1.1">
    <title>fill-ele-symbol-check-circle</title>
    <g id="fill-ele-symbol-check-circle" stroke-width="1" fill-rule="evenodd">
        <path d="M16,2 C23.7319865,2 30,8.2680135 30,16 C30,23.7319865 23.7319865,30 16,30 C8.2680135,30 2,23.7319865 2,16 C2,8.2680135 8.2680135,2 16,2 Z M22.7071068,11.2928932 C22.3165825,10.9023689 21.6834175,10.9023689 21.2928932,11.2928932 L14,18.585 L10.7071068,15.2928932 C10.3165825,14.9023689 9.68341751,14.9023689 9.29289322,15.2928932 C8.90236893,15.6834175 8.90236893,16.3165825 9.29289322,16.7071068 L13.2928932,20.7071068 C13.6834175,21.0976311 14.3165825,21.0976311 14.7071068,20.7071068 L22.7071068,12.7071068 C23.0976311,12.3165825 23.0976311,11.6834175 22.7071068,11.2928932 Z" id="&#24418;&#29366;" />
    </g>
</svg>

<svg xmlns="http://www.w3.org/2000/svg" viewBox="0 0 32 32"><path fill="currentColor" d="M16 2c7.732 0 14 6.268 14 14s-6.268 14-14 14S2 23.732 2 16 8.268 2 16 2m6.707 9.293a1 1 0 0 0-1.414 0L14 18.585l-3.293-3.292a1 1 0 1 0-1.414 1.414l4 4a1 1 0 0 0 1.414 0l8-8a1 1 0 0 0 0-1.414"/></svg>
